Numix-Circle/48x48/apps/addressbook.svg

<?xml version="1.0" encoding="UTF-8" standalone="no"?>
<svg
   xmlns:dc="http://purl.org/dc/elements/1.1/"
   xmlns:cc="http://creativecommons.org/ns#"
   xmlns:rdf="http://www.w3.org/1999/02/22-rdf-syntax-ns#"
   xmlns:svg="http://www.w3.org/2000/svg"
   xmlns="http://www.w3.org/2000/svg"
   xmlns:xlink="http://www.w3.org/1999/xlink"
   xmlns:sodipodi="http://sodipodi.sourceforge.net/DTD/sodipodi-0.dtd"
   xmlns:inkscape="http://www.inkscape.org/namespaces/inkscape"
   width="48"
   viewBox="0 0 13.546667 13.546667"
   height="48"
   id="svg2"
   version="1.1"
   inkscape:version="0.91 r13725"
   sodipodi:docname="x-office-address-book.svg">
  <metadata
     id="metadata331">
    <rdf:RDF>
      <cc:Work
         rdf:about="">
        <dc:format>image/svg+xml</dc:format>
        <dc:type
           rdf:resource="http://purl.org/dc/dcmitype/StillImage" />
        <dc:title />
      </cc:Work>
    </rdf:RDF>
  </metadata>
  <sodipodi:namedview
     pagecolor="#ffffff"
     bordercolor="#666666"
     borderopacity="1"
     objecttolerance="10"
     gridtolerance="10"
     guidetolerance="10"
     inkscape:pageopacity="0"
     inkscape:pageshadow="2"
     inkscape:window-width="1920"
     inkscape:window-height="1025"
     id="namedview329"
     showgrid="true"
     inkscape:zoom="17.839486"
     inkscape:cx="27.072763"
     inkscape:cy="23.022872"
     inkscape:window-x="0"
     inkscape:window-y="28"
     inkscape:window-maximized="1"
     inkscape:current-layer="layer2"
     inkscape:snap-to-guides="false"
     showguides="true"
     inkscape:guide-bbox="true">
    <inkscape:grid
       type="xygrid"
       id="grid3308" />
  </sodipodi:namedview>
  <defs
     id="defs4">
    <linearGradient
       id="linearGradient4073">
      <stop
         style="stop-color:#aa8479;stop-opacity:1;"
         offset="0"
         id="stop4075" />
      <stop
         style="stop-color:#c19d93;stop-opacity:1;"
         offset="1"
         id="stop4077" />
    </linearGradient>
    <radialGradient
       xlink:href="#0-6"
       id="6-9"
       cx="-3"
       cy="24"
       r="10"
       gradientUnits="userSpaceOnUse" />
    <linearGradient
       id="0-6">
      <stop
         stop-color="#91b0c7"
         id="stop7-0" />
      <stop
         offset="1"
         stop-color="#91b0c7"
         stop-opacity="0"
         id="stop9-3" />
    </linearGradient>
    <radialGradient
       r="10"
       cy="24"
       cx="-3"
       gradientUnits="userSpaceOnUse"
       id="radialGradient3922"
       xlink:href="#0-6"
       inkscape:collect="always" />
    <linearGradient
       inkscape:collect="always"
       xlink:href="#linearGradient4073"
       id="linearGradient4079"
       x1="-25.499998"
       y1="15"
       x2="-25.499998"
       y2="11"
       gradientUnits="userSpaceOnUse" />
  </defs>
  <g
     inkscape:groupmode="layer"
     id="layer1"
     inkscape:label="Shadow"
     sodipodi:insensitive="true">
    <path
       style="opacity:0.05;fill:#000000;fill-opacity:1;stroke:none"
       d="M 25,2 C 12.297451,2 2,12.297451 2,25 2,31.367153 4.6007106,37.116628 8.78125,41.28125 12.865755,44.99361 18.29568,47.25 24.25,47.25 c 12.702549,0 23,-10.297451 23,-23 0,-5.95432 -2.25639,-11.384245 -5.96875,-15.46875 C 37.116628,4.6007105 31.367153,2 25,2 z M 41.28125,8.78125 C 45.135604,12.894061 47.5,18.418655 47.5,24.5 c 0,12.702549 -10.297451,23 -23,23 C 18.418655,47.5 12.894061,45.135604 8.78125,41.28125 12.940939,45.4251 18.664604,48 25,48 37.702549,48 48,37.702549 48,25 48,18.664604 45.4251,12.940939 41.28125,8.78125 z"
       transform="scale(0.28222223,0.28222223)"
       id="path3978"
       inkscape:connector-curvature="0" />
    <path
       style="opacity:0.1;fill:#000000;fill-opacity:1;stroke:none"
       d="M 41.28125,8.78125 C 44.99361,12.865755 47.25,18.29568 47.25,24.25 c 0,12.702549 -10.297451,23 -23,23 -5.95432,0 -11.384245,-2.25639 -15.46875,-5.96875 C 12.894061,45.135604 18.418655,47.5 24.5,47.5 c 12.702549,0 23,-10.297451 23,-23 0,-6.081345 -2.364396,-11.605939 -6.21875,-15.71875 z"
       transform="scale(0.28222223,0.28222223)"
       id="path3976"
       inkscape:connector-curvature="0" />
    <path
       transform="matrix(4.3274074,0,0,3.2455556,117.19278,-35.348334)"
       d="m -24,13 a 1.5,2 0 1 1 -3,0 1.5,2 0 1 1 3,0 z"
       sodipodi:ry="2"
       sodipodi:rx="1.5"
       sodipodi:cy="13"
       sodipodi:cx="-25.5"
       id="path3952"
       style="opacity:0.2;fill:#000000;fill-opacity:1;stroke:none"
       sodipodi:type="arc" />
  </g>
  <g
     inkscape:groupmode="layer"
     id="layer2"
     inkscape:label="Base">
    <path
       sodipodi:type="arc"
       style="opacity:1;fill:url(#linearGradient4079);fill-opacity:1.0;stroke:none"
       id="path3942"
       sodipodi:cx="-25.5"
       sodipodi:cy="13"
       sodipodi:rx="1.5"
       sodipodi:ry="2"
       d="m -24,13 a 1.5,2 0 1 1 -3,0 1.5,2 0 1 1 3,0 z"
       transform="matrix(4.3274075,0,0,3.2455556,117.12222,-35.418889)" />
    <path
       style="opacity:0.1;fill:#000000;fill-opacity:1;stroke:none"
       d="M 40.03125 7.53125 C 43.74361 11.615755 46 17.04568 46 23 C 46 35.702549 35.702549 46 23 46 C 17.04568 46 11.615755 43.74361 7.53125 40.03125 C 11.709416 44.322508 17.537578 47 24 47 C 36.702549 47 47 36.702549 47 24 C 47 17.537578 44.322508 11.709416 40.03125 7.53125 z "
       id="path4027"
       transform="scale(0.28222223,0.28222223)" />
    <use
       id="use102"
       xlink:href="#7"
       transform="matrix(0.39511112,0,0,0.39511112,7.9586669,-2.4271114)"
       style="opacity:0.2"
       x="0"
       y="0"
       width="744.09448"
       height="1052.3622" />
    <use
       id="use104-7"
       xlink:href="#7"
       transform="matrix(0.39511112,0,0,0.39511112,7.9586669,-2.7093336)"
       style="fill:#f9f9f9"
       x="0"
       y="0"
       width="744.09448"
       height="1052.3622" />
    <use
       id="use108-3"
       xlink:href="#7"
       transform="matrix(0.31044445,0,0,0.31044445,7.7046669,-0.67733354)"
       style="fill:#355464"
       x="0"
       y="0"
       width="744.09448"
       height="1052.3622" />
    <use
       id="use110"
       xlink:href="#7"
       transform="matrix(0.22577778,0,0,0.22577778,7.4506669,1.3546665)"
       style="fill:#566d80"
       x="0"
       y="0"
       width="744.09448"
       height="1052.3622" />
    <use
       id="use112"
       xlink:href="#7"
       transform="matrix(0.16933334,0,0,0.16933334,7.2813335,2.7093332)"
       style="fill:#355464"
       x="0"
       y="0"
       width="744.09448"
       height="1052.3622" />
    <use
       id="use114"
       xlink:href="#7"
       transform="matrix(0.05644445,0,0,0.05644445,6.9426669,4.5719999)"
       style="fill:url(#6-9)"
       x="0"
       y="0"
       width="744.09448"
       height="1052.3622" />
    <use
       id="use116"
       xlink:href="#7"
       transform="matrix(0.02822222,0,0,0.02822222,6.8580002,6.6604444)"
       style="fill:url(#radialGradient3922)"
       x="0"
       y="0"
       width="744.09448"
       height="1052.3622" />
  </g>
  <g
     inkscape:groupmode="layer"
     id="layer3"
     inkscape:label="Symbol">
    <g
       id="g4149"
       transform="translate(0.2822222,0.28222215)"
       style="opacity:0.1">
      <rect
         style="fill:#000000;fill-opacity:1;stroke:none"
         id="rect4131"
         width="0.84666723"
         height="1.1288891"
         x="9.3133326"
         y="8.1844444"
         rx="0.25"
         ry="0.25" />
      <rect
         ry="0.25"
         rx="0.25"
         y="6.20889"
         x="9.3133326"
         height="1.128888"
         width="0.84666723"
         id="rect4133"
         style="fill:#000000;fill-opacity:1;stroke:none" />
      <rect
         style="fill:#000000;fill-opacity:1;stroke:none"
         id="rect4135"
         width="0.84666699"
         height="1.1288887"
         x="9.3133326"
         y="4.2333336"
         rx="0.25"
         ry="0.25" />
      <rect
         style="fill:#000000;fill-opacity:1;stroke:none"
         id="rect4137"
         width="5.6444445"
         height="6.7733335"
         x="3.9511113"
         y="3.3866668"
         rx="1"
         ry="1" />
      <rect
         ry="0.15000001"
         rx="0.15000001"
         y="5.3622227"
         x="3.3866668"
         height="0.56444448"
         width="1.1288887"
         id="rect4139"
         style="fill:#000000;fill-opacity:1;stroke:none" />
      <rect
         style="fill:#000000;fill-opacity:1;stroke:none"
         id="rect4141"
         width="1.1288887"
         height="0.56444448"
         x="3.3866668"
         y="6.4911118"
         rx="0.15000001"
         ry="0.15000001" />
      <rect
         ry="0.15000001"
         rx="0.15000001"
         y="7.6200008"
         x="3.3866668"
         height="0.56444448"
         width="1.1288887"
         id="rect4143"
         style="fill:#000000;fill-opacity:1;stroke:none" />
      <rect
         style="fill:#000000;fill-opacity:1;stroke:none"
         id="rect4145"
         width="1.1288887"
         height="0.56444448"
         x="3.3866668"
         y="8.7488899"
         rx="0.15000001"
         ry="0.15000001" />
      <rect
         style="fill:#000000;fill-opacity:1;stroke:none"
         id="rect4147"
         width="1.1288887"
         height="0.56444448"
         x="3.3866668"
         y="4.2333336"
         rx="0.15000001"
         ry="0.15000001" />
    </g>
    <rect
       style="fill:#45485b;fill-opacity:1;stroke:none"
       id="rect4091"
       width="0.84666723"
       height="1.1288891"
       x="9.3133326"
       y="8.1844444"
       rx="0.25"
       ry="0.25" />
    <rect
       ry="0.25"
       rx="0.25"
       y="6.20889"
       x="9.3133326"
       height="1.128888"
       width="0.84666723"
       id="rect4089"
       style="fill:#e44933;fill-opacity:1;stroke:none" />
    <rect
       style="fill:#ffca08;fill-opacity:1;stroke:none"
       id="rect4087"
       width="0.84666699"
       height="1.1288887"
       x="9.3133326"
       y="4.2333336"
       rx="0.25"
       ry="0.25" />
    <rect
       style="fill:#f9f9f9;fill-opacity:1;stroke:none"
       id="rect3293"
       width="5.6444445"
       height="6.7733335"
       x="3.9511113"
       y="3.3866668"
       rx="1"
       ry="1" />
    <path
       style="fill:#b1c9c9;fill-opacity:1;stroke:none"
       d="m 4.9477084,3.3866668 c -0.554,2e-7 -0.9965972,0.4425972 -0.9965972,0.9965972 l 0,4.780139 c 0,0.554 0.4425972,0.996597 0.9965972,0.996597 l 0.1322917,0 0,-6.7733333 z"
       id="rect4063"
       inkscape:connector-curvature="0"
       sodipodi:nodetypes="ssssccs" />
    <rect
       ry="0.15000001"
       rx="0.15000001"
       y="5.3622227"
       x="3.3866668"
       height="0.56444448"
       width="1.1288887"
       id="rect4116"
       style="fill:#81584a;fill-opacity:1;stroke:none" />
    <rect
       style="fill:#81584a;fill-opacity:1;stroke:none"
       id="rect4118"
       width="1.1288887"
       height="0.56444448"
       x="3.3866668"
       y="6.4911118"
       rx="0.15000001"
       ry="0.15000001" />
    <rect
       ry="0.15000001"
       rx="0.15000001"
       y="7.6200008"
       x="3.3866668"
       height="0.56444448"
       width="1.1288887"
       id="rect4120"
       style="fill:#81584a;fill-opacity:1;stroke:none" />
    <rect
       style="fill:#81584a;fill-opacity:1;stroke:none"
       id="rect4122"
       width="1.1288887"
       height="0.56444448"
       x="3.3866668"
       y="8.7488899"
       rx="0.15000001"
       ry="0.15000001" />
    <rect
       style="fill:#81584a;fill-opacity:1;stroke:none"
       id="rect4114"
       width="1.1288887"
       height="0.56444448"
       x="3.3866668"
       y="4.2333336"
       rx="0.15000001"
       ry="0.15000001" />
    <path
       style="fill:#6a6e84;fill-opacity:1"
       d="M 6.8194886,8.7462687 C 6.4076273,8.7297461 6.1288856,8.6984495 5.913458,8.644538 5.6668358,8.58282 5.4908852,8.4893282 5.4182626,8.381415 5.3680635,8.3068216 5.3596441,8.268249 5.3628093,8.1273604 5.3654793,8.0087234 5.3656793,8.0075449 5.3940653,7.9489656 5.4634513,7.8057637 5.5915916,7.6843664 5.8290285,7.5368906 5.9464286,7.4639716 6.1876148,7.3462425 6.3599155,7.2777516 6.5313109,7.2096206 6.569551,7.1825466 6.607227,7.1026567 6.626229,7.0623637 6.630201,7.0436517 6.630201,6.994429 6.630201,6.900375 6.612829,6.8528052 6.554794,6.7879426 6.3104402,6.5148441 6.1538989,6.1100417 6.1538989,5.7512644 c 0,-0.3969622 0.1715797,-0.7072391 0.4735312,-0.8563127 0.1275642,-0.062979 0.2396494,-0.090386 0.3941125,-0.096368 0.4231148,-0.016388 0.7719767,0.2183256 0.8910557,0.599501 0.06282,0.2010894 0.064347,0.4701562 0.004,0.707125 -0.058594,0.2301315 -0.1909484,0.4920015 -0.3272581,0.6474976 -0.071217,0.081241 -0.077963,0.093055 -0.092563,0.1620891 -0.017475,0.082629 -0.012861,0.1660376 0.012104,0.2187352 0.027804,0.058693 0.064252,0.084993 0.1707254,0.123188 0.558504,0.2003516 0.9529999,0.4654202 1.0509324,0.7061395 0.016737,0.041142 0.018339,0.057084 0.018348,0.1826694 7.9e-6,0.1335621 -6.339e-4,0.1389413 -0.021705,0.1835863 -0.090418,0.191532 -0.3741608,0.3147571 -0.8710449,0.3782836 -0.2189078,0.027988 -0.7818053,0.049094 -1.0366554,0.038871 z"
       id="path3146"
       inkscape:connector-curvature="0" />
  </g>
</svg>

<svg xmlns="http://www.w3.org/2000/svg" width="48" viewBox="0 0 13.546667 13.546667" height="48">
 <defs>
  <linearGradient id="linearGradient4079" y1="15" x2="0" y2="11" gradientUnits="userSpaceOnUse">
   <stop style="stop-color:#aa8479;stop-opacity:1"/>
   <stop offset="1" style="stop-color:#c19d93;stop-opacity:1"/>
  </linearGradient>
 </defs>
 <g>
  <path d="m 25 2 c -12.703 0 -23 10.297 -23 23 0 6.367 2.601 12.12 6.781 16.281 4.085 3.712 9.514 5.969 15.469 5.969 c 12.703 0 23 -10.297 23 -23 0 -5.954 -2.256 -11.384 -5.969 -15.469 c -4.165 -4.181 -9.914 -6.781 -16.281 -6.781 z m 16.281 6.781 c 3.854 4.113 6.219 9.637 6.219 15.719 c 0 12.703 -10.297 23 -23 23 c -6.081 0 -11.606 -2.364 -15.719 -6.219 4.16 4.144 9.883 6.719 16.219 6.719 12.703 0 23 -10.297 23 -23 0 -6.335 -2.575 -12.06 -6.719 -16.219 z" transform="scale(0.28222223,0.28222223)" style="fill:#000;opacity:0.05;fill-opacity:1;stroke:none"/>
  <path d="m 41.28 8.781 c 3.712 4.085 5.969 9.514 5.969 15.469 c 0 12.703 -10.297 23 -23 23 -5.954 0 -11.384 -2.256 -15.469 -5.969 c 4.113 3.854 9.637 6.219 15.719 6.219 c 12.703 0 23 -10.297 23 -23 0 -6.081 -2.364 -11.606 -6.219 -15.719 z" transform="scale(0.28222223,0.28222223)" style="fill:#000;opacity:0.1;fill-opacity:1;stroke:none"/>
  <path transform="matrix(4.3274074,0,0,3.2455556,117.19278,-35.348334)" d="m -24 13 a 1.5 2 0 1 1 -3 0 1.5 2 0 1 1 3 0 z" style="fill:#000;opacity:0.2;fill-opacity:1;stroke:none"/>
 </g>
 <g>
  <path d="m -24 13 a 1.5 2 0 1 1 -3 0 1.5 2 0 1 1 3 0 z" transform="matrix(4.3274075,0,0,3.2455556,117.12222,-35.418889)" style="fill:url(#linearGradient4079);opacity:1;fill-opacity:1;stroke:none"/>
  <path d="m 40.03 7.531 c 3.712 4.085 5.969 9.514 5.969 15.469 c 0 12.703 -10.297 23 -23 23 c -5.954 0 -11.384 -2.256 -15.469 -5.969 c 4.178 4.291 10.01 6.969 16.469 6.969 c 12.703 0 23 -10.297 23 -23 c 0 -6.462 -2.677 -12.291 -6.969 -16.469 z" transform="scale(0.28222223,0.28222223)" style="fill:#000;opacity:0.1;fill-opacity:1;stroke:none"/>
 </g>
 <g>
  <g transform="translate(0.2822222,0.28222215)" style="opacity:0.1">
   <path d="m 18.543 13 c -1.777 0 -3.226 1.299 -3.488 3 l -1.523 0 c -0.294 0 -0.531 0.237 -0.531 0.531 l 0 0.938 c 0 0.294 0.237 0.531 0.531 0.531 l 1.469 0 l 0 2 l -1.469 0 c -0.294 0 -0.531 0.237 -0.531 0.531 l 0 0.938 c 0 0.294 0.237 0.531 0.531 0.531 l 1.469 0 l 0 2 l -1.469 0 c -0.294 0 -0.531 0.237 -0.531 0.531 l 0 0.938 c 0 0.294 0.237 0.531 0.531 0.531 l 1.469 0 l 0 2 l -1.469 0 c -0.294 0 -0.531 0.237 -0.531 0.531 l 0 0.938 c 0 0.294 0.237 0.531 0.531 0.531 l 1.469 0 l 0 2 l -1.469 0 c -0.294 0 -0.531 0.237 -0.531 0.531 l 0 0.938 c 0 0.294 0.237 0.531 0.531 0.531 l 1.523 0 c 0.262 1.701 1.712 3 3.488 3 l 12.914 0 c 1.777 0 3.226 -1.299 3.488 -3 l 1.168 0 c 0.491 0 0.887 -0.396 0.887 -0.887 l 0 -2.227 c 0 -0.491 -0.396 -0.887 -0.887 -0.887 l -1.113 0 l 0 -3 l 1.113 0 c 0.491 0 0.887 -0.396 0.887 -0.887 l 0 -2.227 c 0 -0.491 -0.396 -0.887 -0.887 -0.887 l -1.113 0 l 0 -3 l 1.113 0 c 0.491 0 0.887 -0.396 0.887 -0.887 l 0 -2.227 c 0 -0.491 -0.396 -0.887 -0.887 -0.887 l -1.168 0 c -0.262 -1.701 -1.712 -3 -3.488 -3 l -12.914 0 z" transform="matrix(0.28222223,0,0,0.28222223,-0.2822222,-0.28222215)" style="fill:#000;fill-opacity:1;stroke:none"/>
  </g>
  <g>
   <rect rx="0.25" y="8.184" x="9.313" height="1.129" width="0.847" style="fill:#45485b;fill-opacity:1;stroke:none"/>
   <rect width="0.847" height="1.129" x="9.313" y="6.209" rx="0.25" style="fill:#e44933;fill-opacity:1;stroke:none"/>
   <rect rx="0.25" y="4.233" x="9.313" height="1.129" width="0.847" style="fill:#ffca08;fill-opacity:1;stroke:none"/>
   <rect rx="1" y="3.387" x="3.951" height="6.773" width="5.644" style="fill:#f9f9f9;fill-opacity:1;stroke:none"/>
   <path d="m 4.948 3.387 c -0.554 0 -0.997 0.443 -0.997 0.997 l 0 4.78 c 0 0.554 0.443 0.997 0.997 0.997 l 0.132 0 0 -6.773 z" style="fill:#b1c9c9;fill-opacity:1;stroke:none"/>
   <rect width="1.129" height="0.564" x="3.387" y="5.362" rx="0.15" style="fill:#81584a;fill-opacity:1;stroke:none"/>
   <rect rx="0.15" y="6.491" x="3.387" height="0.564" width="1.129" style="fill:#81584a;fill-opacity:1;stroke:none"/>
   <rect width="1.129" height="0.564" x="3.387" y="7.62" rx="0.15" style="fill:#81584a;fill-opacity:1;stroke:none"/>
   <rect rx="0.15" y="8.749" x="3.387" height="0.564" width="1.129" style="fill:#81584a;fill-opacity:1;stroke:none"/>
   <rect rx="0.15" y="4.233" x="3.387" height="0.564" width="1.129" style="fill:#81584a;fill-opacity:1;stroke:none"/>
   <path d="m 6.819 8.746 c -0.412 -0.017 -0.691 -0.048 -0.906 -0.102 -0.247 -0.062 -0.423 -0.155 -0.495 -0.263 -0.05 -0.075 -0.059 -0.113 -0.055 -0.254 0.003 -0.119 0.003 -0.12 0.031 -0.178 0.069 -0.143 0.198 -0.265 0.435 -0.412 0.117 -0.073 0.359 -0.191 0.531 -0.259 0.171 -0.068 0.21 -0.095 0.247 -0.175 0.019 -0.04 0.023 -0.059 0.023 -0.108 0 -0.094 -0.017 -0.142 -0.075 -0.206 -0.244 -0.273 -0.401 -0.678 -0.401 -1.037 c 0 -0.397 0.172 -0.707 0.474 -0.856 0.128 -0.063 0.24 -0.09 0.394 -0.096 0.423 -0.016 0.772 0.218 0.891 0.6 0.063 0.201 0.064 0.47 0.004 0.707 -0.059 0.23 -0.191 0.492 -0.327 0.647 -0.071 0.081 -0.078 0.093 -0.093 0.162 -0.017 0.083 -0.013 0.166 0.012 0.219 0.028 0.059 0.064 0.085 0.171 0.123 0.559 0.2 0.953 0.465 1.051 0.706 0.017 0.041 0.018 0.057 0.018 0.183 0 0.134 0 0.139 -0.022 0.184 -0.09 0.192 -0.374 0.315 -0.871 0.378 -0.219 0.028 -0.782 0.049 -1.037 0.039 z" style="fill:#6a6e84;fill-opacity:1"/>
  </g>
 </g>
</svg>
